X: 1
T: The Kerry Cow
R: polka
M: 2/4
L: 1/8
K: Dmaj
A>B AG|FA d2|G>A GF|EF G/F/E|
A>B AG|FA de/d/|cA GE|D2 D2:|
|:d>e fd|cA A>d|BG GA/B/|cA A2|
d>e fd|cA Ad|BG AF|D2 D2:|


Tune 2379	Setting 21437

